assets/images/logo.svg

<svg width="120" height="92" viewBox="0 0 120 92" fill="none" xmlns="http://www.w3.org/2000/svg">
<path d="M14.84 91.872C10.296 91.872 6.776 90.624 4.28 88.128C1.848 85.696 0.632 82.432 0.632 78.336C0.632 74.88 1.688 71.872 3.8 69.312C5.912 66.752 8.76 65.472 12.344 65.472C15.096 65.472 17.336 65.888 19.064 66.72C20.856 67.488 21.752 69.216 21.752 71.904C21.752 73.056 21.56 74.336 21.176 75.744C20.024 74.784 19.032 74.112 18.2 73.728C17.368 73.408 16.44 73.248 15.416 73.248C13.304 73.248 11.64 73.952 10.424 75.36C9.272 76.768 8.696 78.432 8.696 80.352C8.696 82.592 9.368 84.256 10.712 85.344C12.056 86.496 13.56 87.072 15.224 87.072C16.76 87.072 18.04 86.752 19.064 86.112C20.152 85.536 21.112 84.384 21.944 82.656C22.776 80.992 23.576 78.528 24.344 75.264L39.416 6.72C35.128 8.448 31.8 11.104 29.432 14.688C27.064 18.272 25.88 22.624 25.88 27.744C25.88 30.112 26.104 31.776 26.552 32.736C27 33.632 27.224 34.144 27.224 34.272C23.768 34.272 21.176 33.568 19.448 32.16C17.784 30.688 16.952 28.288 16.952 24.96C16.952 20.864 18.616 16.896 21.944 13.056C25.336 9.152 29.656 6.016 34.904 3.648C40.152 1.216 45.4 -5.72205e-06 50.648 -5.72205e-06H54.488L40.088 68.16C38.424 76.032 35.672 81.952 31.832 85.92C27.992 89.888 22.328 91.872 14.84 91.872ZM79.1728 8.44799H78.0208C72.3248 8.44799 67.8768 9.88799 64.6768 12.768C61.5408 15.584 59.9728 20.608 59.9728 27.84C59.9728 30.208 60.1968 31.872 60.6448 32.832C61.0928 33.728 61.3168 34.24 61.3168 34.368C57.8608 34.368 55.2688 33.664 53.5408 32.256C51.8768 30.784 51.0448 28.384 51.0448 25.056C51.0448 20.512 52.1648 16.384 54.4048 12.672C56.6448 8.896 60.1968 5.856 65.0608 3.55199C69.9888 1.248 76.2288 0.0959988 83.7808 0.0959988C88.0048 0.0959988 92.5488 0.479998 97.4128 1.248C101.509 1.952 105.157 2.304 108.357 2.304C112.453 2.304 116.165 1.632 119.493 0.287996C119.365 4.448 118.309 7.52 116.325 9.504C114.341 11.488 111.397 12.48 107.493 12.48C105.445 12.48 103.397 12.32 101.349 12C99.3008 11.68 96.3888 11.136 92.6128 10.368L79.3648 72H65.5408L79.1728 8.44799Z" fill="#4070F4"/>
</svg>

<svg width="120" height="92" fill="none" xmlns="http://www.w3.org/2000/svg"><path d="M14.84 91.872c-4.544 0-8.064-1.248-10.56-3.744C1.848 85.696.632 82.432.632 78.336c0-3.456 1.056-6.464 3.168-9.024 2.112-2.56 4.96-3.84 8.544-3.84 2.752 0 4.992.416 6.72 1.248 1.792.768 2.688 2.496 2.688 5.184 0 1.152-.192 2.432-.576 3.84-1.152-.96-2.144-1.632-2.976-2.016-.832-.32-1.76-.48-2.784-.48-2.112 0-3.776.704-4.992 2.112-1.152 1.408-1.728 3.072-1.728 4.992 0 2.24.672 3.904 2.016 4.992 1.344 1.152 2.848 1.728 4.512 1.728 1.536 0 2.816-.32 3.84-.96 1.088-.576 2.048-1.728 2.88-3.456.832-1.664 1.632-4.128 2.4-7.392L39.416 6.72c-4.288 1.728-7.616 4.384-9.984 7.968-2.368 3.584-3.552 7.936-3.552 13.056 0 2.368.224 4.032.672 4.992.448.896.672 1.408.672 1.536-3.456 0-6.048-.704-7.776-2.112-1.664-1.472-2.496-3.872-2.496-7.2 0-4.096 1.664-8.064 4.992-11.904 3.392-3.904 7.712-7.04 12.96-9.408C40.152 1.216 45.4 0 50.648 0h3.84l-14.4 68.16c-1.664 7.872-4.416 13.792-8.256 17.76-3.84 3.968-9.504 5.952-16.992 5.952zM79.173 8.448H78.02c-5.696 0-10.144 1.44-13.344 4.32-3.136 2.816-4.704 7.84-4.704 15.072 0 2.368.224 4.032.672 4.992.448.896.672 1.408.672 1.536-3.456 0-6.048-.704-7.776-2.112-1.664-1.472-2.496-3.872-2.496-7.2 0-4.544 1.12-8.672 3.36-12.384 2.24-3.776 5.792-6.816 10.656-9.12C69.989 1.248 76.229.096 83.78.096c4.224 0 8.768.384 13.632 1.152 4.096.704 7.744 1.056 10.944 1.056 4.096 0 7.808-.672 11.136-2.016-.128 4.16-1.184 7.232-3.168 9.216-1.984 1.984-4.928 2.976-8.832 2.976-2.048 0-4.096-.16-6.144-.48-2.048-.32-4.96-.864-8.736-1.632L79.365 72H65.54L79.173 8.448z" fill="#4070F4"/></svg>
